svgs/solid/face-grin-stars.svg

<svg xmlns="http://www.w3.org/2000/svg" viewBox="0 0 512 512"><!--! Font Awesome Pro 6.5.1 by @fontawesome - https://fontawesome.com License - https://fontawesome.com/license (Commercial License) Copyright 2023 Fonticons, Inc. --><path d="M0 256a256 256 0 1 1 512 0A256 256 0 1 1 0 256zm407.4 75.5c5-11.8-7-22.5-19.3-18.7c-39.7 12.2-84.5 19-131.8 19s-92.1-6.8-131.8-19c-12.3-3.8-24.3 6.9-19.3 18.7c25 59.1 83.2 100.5 151.1 100.5s126.2-41.4 151.1-100.5zM160 120c-3.1 0-5.9 1.8-7.2 4.6l-16.6 34.7-38.1 5c-3.1 .4-5.6 2.5-6.6 5.5s-.1 6.2 2.1 8.3l27.9 26.5-7 37.8c-.6 3 .7 6.1 3.2 7.9s5.8 2 8.5 .6L160 232.5l33.8 18.3c2.7 1.5 6 1.3 8.5-.6s3.7-4.9 3.2-7.9l-7-37.8L226.4 178c2.2-2.1 3.1-5.3 2.1-8.3s-3.5-5.1-6.6-5.5l-38.1-5-16.6-34.7c-1.3-2.8-4.1-4.6-7.2-4.6zm192 0c-3.1 0-5.9 1.8-7.2 4.6l-16.6 34.7-38.1 5c-3.1 .4-5.6 2.5-6.6 5.5s-.1 6.2 2.1 8.3l27.9 26.5-7 37.8c-.6 3 .7 6.1 3.2 7.9s5.8 2 8.5 .6L352 232.5l33.8 18.3c2.7 1.5 6 1.3 8.5-.6s3.7-4.9 3.2-7.9l-7-37.8L418.4 178c2.2-2.1 3.1-5.3 2.1-8.3s-3.5-5.1-6.6-5.5l-38.1-5-16.6-34.7c-1.3-2.8-4.1-4.6-7.2-4.6z"/></svg>

<svg xmlns="http://www.w3.org/2000/svg" viewBox="0 0 512 512"><!--! Font Awesome Pro 6.1.1 by @fontawesome - https://fontawesome.com License - https://fontawesome.com/license (Commercial License) Copyright 2022 Fonticons, Inc. --><path d="M512 256C512 397.4 397.4 512 256 512C114.6 512 0 397.4 0 256C0 114.6 114.6 0 256 0C397.4 0 512 114.6 512 256zM407.4 331.5C412.4 319.7 400.4 309 388.1 312.8C348.4 324.9 303.7 331.8 256.3 331.8C208.9 331.8 164.1 324.9 124.5 312.8C112.2 309 100.2 319.7 105.2 331.5C130.1 390.6 188.4 432 256.3 432C324.2 432 382.4 390.6 407.4 331.5H407.4zM152.8 124.6L136.2 159.3L98.09 164.3C95.03 164.7 92.48 166.8 91.52 169.8C90.57 172.7 91.39 175.9 93.62 178L121.5 204.5L114.5 242.3C113.1 245.4 115.2 248.4 117.7 250.2C120.2 252.1 123.5 252.3 126.2 250.8L159.1 232.5L193.8 250.8C196.5 252.3 199.8 252.1 202.3 250.2C204.8 248.4 206 245.4 205.5 242.3L198.5 204.5L226.4 178C228.6 175.9 229.4 172.7 228.5 169.8C227.5 166.8 224.1 164.7 221.9 164.3L183.8 159.3L167.2 124.6C165.9 121.8 163.1 120 159.1 120C156.9 120 154.1 121.8 152.8 124.6V124.6zM344.8 124.6L328.2 159.3L290.1 164.3C287 164.7 284.5 166.8 283.5 169.8C282.6 172.7 283.4 175.9 285.6 178L313.5 204.5L306.5 242.3C305.1 245.4 307.2 248.4 309.7 250.2C312.2 252.1 315.5 252.3 318.2 250.8L352 232.5L385.8 250.8C388.5 252.3 391.8 252.1 394.3 250.2C396.8 248.4 398 245.4 397.5 242.3L390.5 204.5L418.4 178C420.6 175.9 421.4 172.7 420.5 169.8C419.5 166.8 416.1 164.7 413.9 164.3L375.8 159.3L359.2 124.6C357.9 121.8 355.1 120 352 120C348.9 120 346.1 121.8 344.8 124.6H344.8z"/></svg>
